dist/images/icons/tel.svg

<svg width="16" height="17" viewBox="0 0 16 17" fill="none" xmlns="http://www.w3.org/2000/svg">
<path d="M15.5645 12.2424L13.3317 10.0095C12.5342 9.21209 11.1786 9.5311 10.8596 10.5678C10.6203 11.2855 9.8229 11.6842 9.1052 11.5247C7.51031 11.126 5.3572 9.0526 4.95848 7.37797C4.71925 6.66024 5.19771 5.86279 5.91542 5.62359C6.9521 5.30461 7.27107 3.94895 6.47363 3.15151L4.24078 0.918659C3.60282 0.360447 2.64589 0.360447 2.08768 0.918659L0.57253 2.43381C-0.942617 4.0287 0.732019 8.25516 4.48001 12.0032C8.22801 15.7511 12.4545 17.5056 14.0494 15.9106L15.5645 14.3955C16.1228 13.7575 16.1228 12.8006 15.5645 12.2424Z" fill="#999999"/>
</svg>

<svg width="16" height="17" fill="none" xmlns="http://www.w3.org/2000/svg"><path d="M15.565 12.242l-2.233-2.233c-.798-.797-2.153-.478-2.472.559-.24.718-1.037 1.116-1.755.957-1.595-.399-3.748-2.472-4.147-4.147-.239-.718.24-1.515.957-1.754 1.037-.32 1.356-1.675.559-2.472L4.24.919C3.603.36 2.646.36 2.088.919L.573 2.434c-1.516 1.595.159 5.821 3.907 9.57 3.748 3.747 7.974 5.502 9.57 3.907l1.514-1.515c.559-.639.559-1.595 0-2.154z" fill="#999"/></svg>
